X: 1043
T: A Theater Dance.
%R: jig, waltz
B: Henry Playford "Apollo's Banquet", London 1687 (5th Edition)
F: https://archive.org/details/apollosbanquetco01rugg
Z: 2017 John Chambers <jc:trillian.mit.edu>
M: 6/4
L: 1/4
K: D
% - - - - - - - - - -
d |\
f>ga a>ba | gaf efg | f>ga ABc | d3- d2B |\
c>de e>de | fef g2a | abf ^g2e | a3- a2 :|
|: f/g/ |\
a>ba g2f | f3- f2f | f>ed c2B | B3- B2B |\
cA2  d2e | efB c2d | efB  c2d | d3- d2 |]
% - - - - - - - - - -

%%sep 1 1 500
%%sep 1 1 500

